X:40
T:The Pride Of Rathmore
R:Reel
S:Connie Connel, Cork and Denis McMahon, Kerry (fiddles)
D:"The Pure Drop"
M:4/4
Z:Bernie Stocks
K:D
|: ~E3F G2EF | GBAG FDDF | ~E3F G3A |1 (3.B.c.d ed Bded :|2 (3.B.c.d ed BE~E2 || 
e3d Bdef | geag fddf | efed Bdeg | fedf e3d | 
(3Bcd ed Bdef | geag fdd2 | ~g3e dged | B2Ad BE~E2 ||
<end>
<start>
